src/assets/duotone/Group1.svg

<?xml version="1.0" encoding="UTF-8"?>
<svg width="24" height="24" viewBox="0 0 24 24" xmlns="http://www.w3.org/2000/svg">
 <path d="m22 14v3c0 1.66-1.34 3-3 3h-1c0-1.1-0.9-2-2-2s-2 0.9-2 2h-4c0-1.1-0.9-2-2-2s-2 0.9-2 2h-1c-1.66 0-3-1.34-3-3v-3h11c1.1 0 2-0.9 2-2v-7h1.84c0.72 0 1.38 0.39001 1.74 1.01l1.71 2.99h-1.29c-0.55 0-1 0.45-1 1v3c0 0.55 0.45 1 1 1h3z" opacity=".4"/>
 <path d="m8 22c1.1046 0 2-0.8954 2-2s-0.89543-2-2-2-2 0.8954-2 2 0.89543 2 2 2z"/>
 <path d="m16 22c1.1046 0 2-0.8954 2-2s-0.8954-2-2-2-2 0.8954-2 2 0.8954 2 2 2z"/>
 <path d="m22 12.53v1.47h-3c-0.55 0-1-0.45-1-1v-3c0-0.55 0.45-1 1-1h1.29l1.45 2.54c0.17 0.3 0.26 0.64 0.26 0.99z"/>
 <path d="m14 2h-8c-1.95 0-3.57 1.4-3.92 3.25h4.92c0.41 0 0.75 0.34 0.75 0.75s-0.34 0.75-0.75 0.75h-5v1.5h3c0.41 0 0.75 0.34 0.75 0.75s-0.34 0.75-0.75 0.75h-3v1.5h1c0.41 0 0.75 0.34 0.75 0.75s-0.34 0.75-0.75 0.75h-1v1.25h11c1.1 0 2-0.9 2-2v-9c0-0.55-0.45-1-1-1z"/>
 <path d="m2.08 5.25h-1.08c-0.41 0-0.75 0.34-0.75 0.75s0.34 0.75 0.75 0.75h1v-0.75c0-0.26 0.03002-0.51 0.08002-0.75z"/>
 <path d="m1 8.25c-0.41 0-0.75 0.34-0.75 0.75s0.34 0.75 0.75 0.75h1v-1.5h-1z"/>
 <path d="m1 11.25c-0.41 0-0.75 0.34-0.75 0.75s0.34 0.75 0.75 0.75h1v-1.5h-1z"/>
</svg>

<svg width="24" height="24" viewBox="0 0 24 24"  xmlns="http://www.w3.org/2000/svg">
<path opacity="0.4" d="M22 14V17C22 18.66 20.66 20 19 20H18C18 18.9 17.1 18 16 18C14.9 18 14 18.9 14 20H10C10 18.9 9.1 18 8 18C6.9 18 6 18.9 6 20H5C3.34 20 2 18.66 2 17V14H13C14.1 14 15 13.1 15 12V5H16.84C17.56 5 18.22 5.39001 18.58 6.01001L20.29 9H19C18.45 9 18 9.45 18 10V13C18 13.55 18.45 14 19 14H22Z" />
<path d="M8 22C9.10457 22 10 21.1046 10 20C10 18.8954 9.10457 18 8 18C6.89543 18 6 18.8954 6 20C6 21.1046 6.89543 22 8 22Z" />
<path d="M16 22C17.1046 22 18 21.1046 18 20C18 18.8954 17.1046 18 16 18C14.8954 18 14 18.8954 14 20C14 21.1046 14.8954 22 16 22Z" />
<path d="M22 12.53V14H19C18.45 14 18 13.55 18 13V10C18 9.45 18.45 9 19 9H20.29L21.74 11.54C21.91 11.84 22 12.18 22 12.53Z" />
<path d="M14 2H6C4.05 2 2.43002 3.4 2.08002 5.25H7C7.41 5.25 7.75 5.59 7.75 6C7.75 6.41 7.41 6.75 7 6.75H2V8.25H5C5.41 8.25 5.75 8.59 5.75 9C5.75 9.41 5.41 9.75 5 9.75H2V11.25H3C3.41 11.25 3.75 11.59 3.75 12C3.75 12.41 3.41 12.75 3 12.75H2V14H13C14.1 14 15 13.1 15 12V3C15 2.45 14.55 2 14 2Z" />
<path d="M2.08002 5.25H1C0.59 5.25 0.25 5.59 0.25 6C0.25 6.41 0.59 6.75 1 6.75H2V6C2 5.74 2.03002 5.49 2.08002 5.25Z" />
<path d="M1 8.25C0.59 8.25 0.25 8.59 0.25 9C0.25 9.41 0.59 9.75 1 9.75H2V8.25H1Z" />
<path d="M1 11.25C0.59 11.25 0.25 11.59 0.25 12C0.25 12.41 0.59 12.75 1 12.75H2V11.25H1Z" />
</svg>
